X: 77
T:Oyster Girl
M:6/8
L:1/8
R:jig
K:G
"D7"Bc|"G"ded B2 G|"D7"A2 F DEF|"G"G2G BAB|"D7"d2 c ABc|
"G"ded Bdg|"C"f2 e c2e|"G"d2 B "D7"cBA|"G"G3 G2 :|
|:dc|"G"Bcd Bcd|"C"e2 c edc|"D7"ABc ABc|"G"d2 B dcB|
"G"ded Bdg|"D7"f2 e c2 e|"G"d2 B "D7"cBA|"G"G3 G2:|
